X:1
T:My soul with grateful thoughts of love
T:My soul with grateful thoughts of love (John Wall Callcott)
C:John Wall Callcott
Z:p120, The Psalms of David,
Z:ed. Samuel Arnold and
Z:John Wall Callcott,
Z:London: 1791
%%score [ 1 2 3 4 ]
L:1/8
M:3/2
K:E
V:1 treble nm="Soprano" snm="S."
V:2 treble nm="Alto" snm="A."
V:3 treble-8 transpose=-12 nm="Tenor" snm="T."
V:4 bass nm="Bass" snm="B."
V:1
 (G3 A) | B8 e4 | (d4 c4) B4 | (A6 Bc) (B2 A2) | (A4 G4) G4 | G3 F A4 A4 | (A4 G4) B4 | %7
w: With _|dead- ly|sor- * rows|com- * * pass’d _|round, _ With|pains of hell op-|press’d, _ with|
w: My _|soul with|grate- * ful|thoughts _ _ of _|love _ En-|tire- ly is pos-|sess’d, _ en-|
w: Since _|he has|now _ his|ear _ _ in- *|clin’d, _ I|ne- ver will de-|spair, _ I|
 c3 c A4 G4 | (G4 F4) B4 | (A2 G2 F2 G2) (B2 G2) | (F4 B4) A4 | (G2 F2 G2 B2) (A2 G2) | F4 B8 | %13
w: pains of hell op-|press’d, _ When|trou- * * * ble _|seiz’d _ my|a- * * * ching _|heart, And|
w: tire- ly is pos-|sess’d, _ Be-|cause _ _ _ the _|Lord _ vouch-|saf’d _ _ _ to _|hear The|
w: ne- ver will de-|spair; _ But|still _ _ _ in _|all _ the|straits _ _ _ of _|life To|
 B8 G4 | (c4 d4) e4 | (A2 G2 A2 F2 G2 A2 | G4 F4) B4 | e3 E F4 G4 | (A3 B c4) c4 | B3 A G4 F4 | %20
w: an- guish|rack’d _ my|breast, _ _ _ _ _|_ _ and|an- guish rack’d my|breast, _ _ and|an- guish rack’d my|
w: voice of|my _ re-|quest, _ _ _ _ _|_ _ the|voice of my re-|quest, _ _ the|voice of my re-|
w: him ad-|dress _ my|pray’r, _ _ _ _ _|_ _ to|him ad- dress my|pray’r, _ _ to|him ad- dress my|
 E8 |] %21
w: breast:|
w: quest.|
w: pray’r.|
V:2
 (E3 F) | G8 G4 | (B4 A4) G4 | C8 F4 | (F4 E4) E4 | E3 D F4 F4 | (F4 E4) E4 | E3 E F4 E4 | %8
w: With _|dead- ly|sor- * rows|com- pass’d|round, _ With|pains of hell op-|press’d, _ with|pains of hell op-|
w: My _|soul with|grate- * ful|thoughts of|love _ En-|tire- ly is pos-|sess’d, _ en-|tire- ly is pos-|
w: Since _|he has|now _ his|ear in-|clin’d, _ I|ne- ver will de-|spair, _ I|ne- ver will de-|
 (E4 D4) z4 | z4 z4 E4 | (E2 D2 C2 B,2) (D2 B,2) | (E2 D2 E2 G2) (F2 E2) | (B,4 D4) F4 | E8 B4- | %14
w: press’d, _|When|trou- * * * ble _|seiz’d _ _ _ my _|a- * ching|heart, And|
w: sess’d, _|Be-|cause _ _ _ the _|Lord _ _ _ vouch- *|saf’d _ to|hear The|
w: spair; _|But|still _ _ _ in _|all _ _ _ the _|straits _ of|life To|
 B4 A4 G4 | (E4 F4) (E2 F2) | (E4 D4) D4 | E3 E B,4 B,4 | (C4 E4) E4 | E3 E E4 D4 | E8 |] %21
w: _ an- guish|rack’d _ my _|breast, _ and|an- guish rack’d my|breast, _ and|an- guish rack’d my|breast:|
w: _ voice of|my _ re- *|quest, _ the|voice of my re-|quest, _ the|voice of my re-|quest.|
w: _ him ad-|dress _ my _|pray’r, _ to|him ad- dress my|pray’r, _ to|him ad- dress my|pray’r.|
V:3
 B4 | e8 B4 | (d4 e2 f2) g4 | f8 B4 | B8 E4 | B3 B d4 B4 | e8 G4 | A3 A c4 e4 | B8 z4 | z12 | z12 | %11
w: With|dead- ly|sor- * * rows|com- pass’d|round, With|pains of hell op-|press’d, with|pains of hell op-|press’d,|||
w: My|soul with|grate- * * ful|thoughts of|love En-|tire- ly is pos-|sess’d, en-|tire- ly is pos-|sess’d,|||
w: Since|he has|now _ _ his|ear in-|clin’d, I|ne- ver will de-|spair, I|ne- ver will de-|spair;|||
 z4 z4 e4 | (e2 d2 c2 B2) (d2 B2) | (e4 B4) e4- | e4 f4 B4 | (c4 B8- | B8) B4 | B3 B B4 e4 | %18
w: When|trou- * * * ble _|seiz’d _ my|_ a- ching|heart, _|_ And|an- guish rack’d my|
w: Be-|cause _ _ _ the _|Lord _ vouch-|* saf’d to|hear _|_ The|voice of my re-|
w: But|still _ _ _ in _|all _ the|_ straits of|life _|_ To|him ad- dress my|
 (e4 c4) A4 | B3 c B6 A2 | G8 |] %21
w: breast, _ and|an- guish rack’d my|breast:|
w: quest, _ the|voice of my re-|quest.|
w: pray’r, _ to|him ad- dress my|pray’r.|
V:4
 E,4 | E,8 E,4 | (B,,4"^6" C,2"^-" D,2) E,4 | (F,4 E,4)"^6" D,4 |"^94""^83" E,12 | z12 | %6
w: With|dead- ly|sor- * * rows|com- * pass’d|round,||
w: My|soul with|grate- * * ful|thoughts _ of|love||
w: Since|he has|now _ _ his|ear _ in-|clin’d,||
"^Notes: The first verse only of the text is underlaid in the source, with the other verses given here printed after the music.The parts are identified in the source as Treble, Counter, Tenor and Bass: the top three parts are in the treble clef, with theCounter and Tenor an octave above sounding pitch. The second and third notes in the Treble part in bar 3, given here asquavers, are printed in the source as crotchets. This setting is attributed ‘Callcott’ in the source." z4 z4 E,4 | %7
w: With|
w: En-|
w: I|
 A,,3 A,,"^86" A,,4"^75" ^A,,4 |"^64""^53" B,,8 z4 | z12 | z12 | z12 | z4 z4 B,4 | %13
w: pains of hell op-|press’d,||||When|
w: tire- ly is pos-|sess’d,||||Be-|
w: ne- ver will de-|spair;||||But|
"^-" (A,2"^6" G,2"^-" F,2"^6" G,2) (E,2 G,2) |"^9" (A,4"^6" F,4)"^6" G,4 |"^6" (C,4"^65" D,4) E,4 | %16
w: trou- * * * ble _|seiz’d _ my|a- * ching|
w: cause _ _ _ the _|Lord _ vouch-|saf’d _ to|
w: still _ _ _ in _|all _ the|straits _ of|
"^64" (B,,4"^53" B,4)"^-" A,4 | %17
w: heart, _ And|
w: hear _ The|
w: life _ To|
"^6" G,3"^How just and merciful is God,How gracious is the Lord!Who saves the harmless, and to meDoes timely aid afford." G,"^6" D,4 E,4 | %18
w: an- guish rack’d my|
w: voice of my re-|
w: him ad- dress my|
"^6" (C,4 A,,4) A,4 |"^6" G,3 A,"^64" B,4"^53" B,,4 | E,8 |] %21
w: breast, _ and|an- guish rack’d my|breast:|
w: quest, _ the|voice of my re-|quest.|
w: pray’r, _ to|him ad- dress my|pray’r.|

